X: 41663
T: Upperchurch, The
R: polka
M: 2/4
K: Gmajor
|:B2 Bc/B/|AG G>G|FG AB|dc c2|
c2 cd/c/|BA A>A|GF EF|1 ED B,/C/D:|2 AG G2||
|:dB B/^A/B/c/|dB B>c|dB eB|dc c2|
cA A/^G/A/B/|cA A>B|1 dc BA|G/A/G/F/ ED:|2 dc EF|G2 G2||

